src/icons/editor/glyph/LowercaseIcon.svg

<svg width="24" height="24" viewBox="0 0 24 24" fill="none" xmlns="http://www.w3.org/2000/svg">
<path d="M9.36816 15.4609V12.0498C9.36816 11.7992 9.32487 11.5827 9.23828 11.4004C9.15169 11.2181 9.01953 11.0768 8.8418 10.9766C8.66406 10.8763 8.43848 10.8262 8.16504 10.8262C7.9235 10.8262 7.71159 10.8672 7.5293 10.9492C7.35156 11.0312 7.21484 11.1475 7.11914 11.2979C7.02344 11.4437 6.97559 11.6123 6.97559 11.8037H5.16406C5.16406 11.4984 5.23698 11.209 5.38281 10.9355C5.52865 10.6576 5.736 10.4115 6.00488 10.1973C6.27832 9.97852 6.60417 9.80762 6.98242 9.68457C7.36523 9.56152 7.79362 9.5 8.26758 9.5C8.82812 9.5 9.32715 9.5957 9.76465 9.78711C10.2067 9.97396 10.5531 10.2565 10.8037 10.6348C11.0589 11.013 11.1865 11.4893 11.1865 12.0635V15.29C11.1865 15.6592 11.2093 15.9759 11.2549 16.2402C11.305 16.5 11.3779 16.7256 11.4736 16.917V17.0332H9.63477C9.54818 16.8464 9.4821 16.6094 9.43652 16.3223C9.39095 16.0306 9.36816 15.7435 9.36816 15.4609ZM9.62109 12.5283L9.63477 13.6016H8.49316C8.21061 13.6016 7.96224 13.6312 7.74805 13.6904C7.53385 13.7451 7.3584 13.8271 7.22168 13.9365C7.08496 14.0413 6.98242 14.1689 6.91406 14.3193C6.8457 14.4652 6.81152 14.6315 6.81152 14.8184C6.81152 15.0007 6.85254 15.1647 6.93457 15.3105C7.02116 15.4564 7.14421 15.5726 7.30371 15.6592C7.46777 15.7412 7.65918 15.7822 7.87793 15.7822C8.19694 15.7822 8.47493 15.7184 8.71191 15.5908C8.94889 15.4587 9.13346 15.2992 9.26562 15.1123C9.39779 14.9255 9.46842 14.7477 9.47754 14.5791L9.99707 15.3584C9.93327 15.5452 9.83756 15.7435 9.70996 15.9531C9.58236 16.1628 9.41829 16.3587 9.21777 16.541C9.01725 16.7233 8.77572 16.8737 8.49316 16.9922C8.21061 17.1107 7.88249 17.1699 7.50879 17.1699C7.03027 17.1699 6.60189 17.0742 6.22363 16.8828C5.84538 16.6914 5.54688 16.4294 5.32812 16.0967C5.10938 15.764 5 15.3857 5 14.9619C5 14.57 5.07292 14.2236 5.21875 13.9229C5.36458 13.6221 5.58105 13.3691 5.86816 13.1641C6.15527 12.9544 6.51074 12.7972 6.93457 12.6924C7.36296 12.583 7.85286 12.5283 8.4043 12.5283H9.62109Z" fill="currentColor"/>
<path d="M17.5166 9.63672H19.1572V16.8076C19.1572 17.4775 19.0114 18.0449 18.7197 18.5098C18.4326 18.9792 18.0293 19.3346 17.5098 19.5762C16.9902 19.8223 16.3864 19.9453 15.6982 19.9453C15.402 19.9453 15.0807 19.9043 14.7344 19.8223C14.3926 19.7402 14.0622 19.6104 13.7432 19.4326C13.4287 19.2594 13.1667 19.0339 12.957 18.7559L13.7705 17.6895C14.0166 17.9766 14.2946 18.193 14.6045 18.3389C14.9144 18.4893 15.2493 18.5645 15.6094 18.5645C15.974 18.5645 16.2839 18.4961 16.5391 18.3594C16.7988 18.2272 16.9971 18.0312 17.1338 17.7715C17.2751 17.5163 17.3457 17.2018 17.3457 16.8281V11.3252L17.5166 9.63672ZM12.5195 13.4238V13.2803C12.5195 12.7152 12.5879 12.2025 12.7246 11.7422C12.8613 11.2773 13.0573 10.8786 13.3125 10.5459C13.5723 10.2132 13.8844 9.95573 14.249 9.77344C14.6182 9.59115 15.0329 9.5 15.4932 9.5C15.9808 9.5 16.391 9.58887 16.7236 9.7666C17.0609 9.94434 17.3389 10.1973 17.5576 10.5254C17.7809 10.8535 17.9541 11.2432 18.0771 11.6943C18.2048 12.141 18.3027 12.6331 18.3711 13.1709V13.5605C18.3073 14.0846 18.2048 14.5654 18.0635 15.0029C17.9268 15.4404 17.7445 15.8232 17.5166 16.1514C17.2887 16.4749 17.0062 16.7256 16.6689 16.9033C16.3317 17.0811 15.9352 17.1699 15.4795 17.1699C15.0238 17.1699 14.6136 17.0765 14.249 16.8896C13.8844 16.7028 13.5723 16.4408 13.3125 16.1035C13.0573 15.7663 12.8613 15.3698 12.7246 14.9141C12.5879 14.4583 12.5195 13.9616 12.5195 13.4238ZM14.3242 13.2803V13.4238C14.3242 13.7428 14.3561 14.0413 14.4199 14.3193C14.4837 14.5973 14.5817 14.8434 14.7139 15.0576C14.846 15.2673 15.0124 15.4313 15.2129 15.5498C15.4134 15.6683 15.6527 15.7275 15.9307 15.7275C16.3044 15.7275 16.6097 15.6501 16.8467 15.4951C17.0882 15.3356 17.2705 15.1191 17.3936 14.8457C17.5212 14.5677 17.6032 14.2555 17.6396 13.9092V12.8359C17.6169 12.5625 17.5667 12.3096 17.4893 12.0771C17.4163 11.8447 17.3138 11.6442 17.1816 11.4756C17.0495 11.307 16.8809 11.1748 16.6758 11.0791C16.4707 10.9834 16.2269 10.9355 15.9443 10.9355C15.6709 10.9355 15.4316 10.9971 15.2266 11.1201C15.0215 11.2386 14.8529 11.4049 14.7207 11.6191C14.5885 11.8333 14.4883 12.0817 14.4199 12.3643C14.3561 12.6468 14.3242 12.9521 14.3242 13.2803Z" fill="currentColor"/>
</svg>

<svg xmlns="http://www.w3.org/2000/svg" width="24" height="24" fill="currentColor" viewBox="0 0 24 24">
  <path d="M9.368 15.46v-3.41c0-.25-.043-.467-.13-.65a.938.938 0 0 0-.396-.423c-.178-.1-.404-.15-.677-.15-.241 0-.453.04-.636.122a.937.937 0 0 0-.41.349.9.9 0 0 0-.143.506H5.164c0-.306.073-.595.219-.869a2.33 2.33 0 0 1 .622-.738c.273-.218.6-.39.977-.512A4.188 4.188 0 0 1 8.268 9.5c.56 0 1.06.096 1.497.287.442.187.788.47 1.039.848.255.378.383.854.383 1.428v3.227c0 .37.022.686.068.95.05.26.123.486.219.677v.116h-1.84a2.724 2.724 0 0 1-.197-.71 5.575 5.575 0 0 1-.069-.862Zm.253-2.932.014 1.074H8.493c-.282 0-.53.03-.745.088-.214.055-.39.137-.526.247a.997.997 0 0 0-.308.382 1.163 1.163 0 0 0-.102.5c0 .182.04.346.123.491a.94.94 0 0 0 .369.35c.164.081.355.122.574.122.319 0 .597-.064.834-.191a1.64 1.64 0 0 0 .554-.479c.132-.187.202-.364.212-.533l.52.78c-.065.186-.16.384-.288.594a2.69 2.69 0 0 1-.492.588 2.49 2.49 0 0 1-.725.451 2.53 2.53 0 0 1-.984.178c-.479 0-.907-.096-1.285-.287a2.278 2.278 0 0 1-.896-.786A2.02 2.02 0 0 1 5 14.962c0-.392.073-.738.219-1.04.146-.3.362-.553.65-.758.286-.21.642-.367 1.066-.472a5.978 5.978 0 0 1 1.47-.164H9.62Zm7.896-2.891h1.64v7.17c0 .67-.146 1.238-.437 1.703a2.72 2.72 0 0 1-1.21 1.066c-.52.246-1.124.37-1.812.37a4.2 4.2 0 0 1-.964-.124 3.9 3.9 0 0 1-.99-.39 2.454 2.454 0 0 1-.787-.676l.813-1.067a2.5 2.5 0 0 0 .835.65c.31.15.644.226 1.004.226.365 0 .675-.069.93-.206a1.35 1.35 0 0 0 .595-.588c.141-.255.212-.57.212-.943v-5.503l.17-1.688Zm-4.997 3.787v-.144c0-.565.068-1.077.205-1.538.136-.465.332-.863.588-1.196.26-.333.571-.59.936-.773.37-.182.784-.273 1.244-.273.488 0 .898.089 1.23.267.338.177.616.43.835.758.223.329.396.718.52 1.17.127.446.225.938.293 1.476v.39a7.733 7.733 0 0 1-.307 1.442 4.19 4.19 0 0 1-.547 1.148 2.39 2.39 0 0 1-.848.752c-.337.178-.734.267-1.19.267a2.67 2.67 0 0 1-1.23-.28 2.762 2.762 0 0 1-.937-.787 3.723 3.723 0 0 1-.587-1.189 5.168 5.168 0 0 1-.205-1.49Zm1.804-.144v.144c0 .319.032.617.096.895s.162.524.294.739c.132.21.298.373.499.492.2.118.44.177.718.177.373 0 .679-.077.916-.232.241-.16.423-.376.547-.65.127-.277.21-.59.246-.936v-1.073a3.247 3.247 0 0 0-.15-.759 1.874 1.874 0 0 0-.308-.601 1.372 1.372 0 0 0-.506-.397 1.717 1.717 0 0 0-.732-.144c-.273 0-.512.062-.717.185a1.433 1.433 0 0 0-.506.5 2.552 2.552 0 0 0-.301.744 4.154 4.154 0 0 0-.096.916Z"/>
</svg>
